X: 1586
T: Pişman Olur da Bir Gün
C: İrfan Özbakır
O: Turkey
F: http://compmusic.upf.edu/node/140
N: huzzam--sarki--duyek--pisman_olur_da--irfan_ozbakir
N: makam= huzzam
N: form= sarki
N: usul= duyek = 8/4
M: 8/4
L: 1/16
K: C _1/4B _3/4e ^3/4f 
Q: 1/4=156
%%MIDI tuningsystem comma53
f2 g4 gf f2 {g}fe e2 d2  | fe d6 .G2 .B2 .d4  | \
w:  Piş man  o *  lur  *  *  *  da   |  bir  *  gün  SAZ  | 
d2 e4 f2 dc c4 d2  | 
w:  dö ner sen  ba *  na   | 
dc B6 .G2 .G2 .B4  | f2 g4 gf f2 e2 e2 d2  | \
w:  ge *  ri  SAZ  |  dö ner sen  *  ba *  na   | 
(3fed d6 GA Bc d4  | 
w:  ge *  *  ri   SAZ  | 
z2 g4 g2 (3fga g2 (3efg f2  | (3def e2 (3cde d2 B2 f4 f2  | 
w:  SAZ  |   | 
(3efg f2 (3def e2 (3cde d2 (3Bcd c2  | \
w:   | 
B2 f4 ed dc B^A B4  | 
w:  SAZ  | 
f2 g4 gf f2 {g}fe e2 d2  | fe d6 .G2 .B2 .d4  | \
w:  Piş man  o *  lur  *  *  *  da   |  bir  *  gün  SAZ  | 
d2 e4 f2 dc c4 d2  | 
w:  dö ner sen  ba *  na   | 
dc B6 .G2 .G2 .B4  | f2 g4 gf f2 e2 e2 d2  | \
w:  ge *  ri  SAZ  |  dö ner sen  *  ba *  na   | 
(3fed d6 GA Bc d4  | 
w:  ge *  *  ri   SAZ  | 
z2 g4 g2 (3fga g2 (3efg f2  | (3def e2 (3cde d2 B2 f4 f2  | 
w:  SAZ  |   | 
(3efg f2 (3def e2 (3cde d2 (3Bcd c2  | \
w:   | 
B2 f4 ed cd ef g4  | 
w:  SAZ  | 
f2 g4 g2 g3/2f/ g6  | a2 _b4 ag ^f3/2_1/4e/ f6  | \
w:  Gö nül  ka pım   |  a çık *  *  tır   | 
z2 g4 gf f3e e3d  | 
w:  çal ma *  dan  *  gir   | 
c2 d2 e4 c2 d2 e4  | d3g fe dc BA G2 g4  | \
w:  i çe ri  SAZ  |  çal ma dan  *  *  *  *  *  *  gir   | 
c2 {d}cB B12  | z2 g4 g2 (3fga g2 (3efg f2  | 
w:  i *  çe *  ri    |   | 
(3def e2 (3cde d2 B2 f4 f2  | (3efg f2 (3def e2 (3cde d2 (3Bcd c2  | 
w:   |   | 
B2 f4 ed cd ef g4  | f2 g4 g2 g3/2f/ g6  | \
w:  SAZ  |  Gö nül  ka pım   | 
a2 _b4 ag ^f3/2_1/4e/ f6  | 
w:  a çık *  *  tır   | 
z2 g4 gf f3e e3d  | c2 d2 e4 c2 d2 e4  | \
w:  çal ma *  dan  *  gir   |  i çe ri  SAZ  | 
d3g fe dc BA G2 g4  | 
w:  çal ma dan  *  *  *  *  *  *  gir   | 
c2 {d}cB B12  | z2 g4 g2 (3fga g2 (3efg f2  | \
w:  i *  çe *  ri    |   | 
(3def e2 (3cde d2 B2 f4 f2  | 
w:   | 
(3efg f2 (3def e2 (3cde d2 (3Bcd c2  | \
w:   | 
B2 b4 bc' b^a ga b4  | 
w:  SAZ  | 
z4 g2 b2 b4 d'4  | c'3b ^a2 {d'}c'b b8  | \
w:  Sa na  sev gi  |  ler  *  son *  *  *  suz   | 
b4 ^a2 b2 c'3b b3a  | a3g g2 {a}gf f8  | 
w:  *  he nüz  geç *  me  |  di  *  za *  *  *  man   | 
f4 f2 g2 g2 f2 a2 g2  | _b2 ag fe ed d8  | \
w:  *  he nüz  geç *  me  |  di  *  *  za *  *  *  man    | 
z2 g4 g2 (3fga g2 (3efg f2  | 
w:   | 
(3def e2 (3cde d2 B2 f4 f2  | (3efg f2 (3def e2 (3cde d2 (3Bcd c2  | 
w:   |   | 
B2 b4 bc' b^a ga b4  | z4 g2 b2 b4 d'4  | \
w:  SAZ  |  Sa na  sev gi  | 
c'3b ^a2 {d'}c'b b8  | b4 ^a2 b2 c'3b b3a  | 
w:  ler  *  son *  *  *  suz   |  *  he nüz  geç *  me  | 
a3g g2 {a}gf f8  | f4 f2 g2 g2 f2 a2 g2  | \
w:  di  *  za *  *  *  man   |  *  he nüz  geç *  me  | 
_b2 ag fe ed d8  | 
w:  di  *  *  za *  *  *  man    | 
z2 g4 g2 (3fga g2 (3efg f2  | (3def e2 (3cde d2 B2 f4 f2  | 
w:   |   | 
(3efg f2 (3def e2 (3cde d2 (3Bcd c2  | \
w:   | 
B2 f4 ed cd ef g4  | 
w:  SAZ  | 
f2 g4 g2 g3/2f/ g6  | a2 _b4 ag ^f3/2_1/4e/ f6  | \
w:  Gö nül  ka pım   |  a çık *  *  tır   | 
z2 g4 gf f3e e3d  | 
w:  çal ma *  dan  *  gir   | 
c2 d2 e4 c2 d2 e4  | d3g fe dc BA G2 g4  | \
w:  i çe ri  SAZ  |  çal ma dan  *  *  *  *  *  *  gir   | 
c2 {d}cB B12  | |


